!!!OTL: Zaosong dajun xiajiangnan
!!!ARE: Asia, China,ÿJiangsu Nantong
!! III, 467
!!!SCT: C2030
!!!YEM: Copyright 1995, estate of Helmut Schaffrath.
**kern
*ICvox
*Ivox
*M2/4
*k[b-e-]
*B-:
{4ccc
8ccc
8bb-
=1
4gg
4bb-}
=2
{8ccc
16ccc
16bb-
8gg
8bb-
=3
4ccc
4gg}
=4
{8ccc
16ccc
16bb-
8gg
8bb-
=5
4ccc
4gg}
=6
{8ccc
8ddd
8ddd
8ccc
=7
4bb-
4ddd}
=8
{4ccc
8bb-
16ccc
16bb-
=9
4gg
4bb-}
=10
{4ccc
8bb-
16ccc
16bb-
=11
4gg
4bb-}
=12
{8gg
8bb-
8ff
8gg
=13
8dd
8cc
4dd}
=14
{4fff
8fff
8ddd
=15
8ccc
8bb-
4ccc}
=16
{16ccc
16bb-
16gg
16bb-
8ccc
8bb-
=17
8ccc
8bb-
4ccc}
=18
{16ccc
16bb-
16gg
16bb-
8ccc
8bb-
=19
8ccc
8bb-
4ccc}
=20
{4fff
8fff
8ddd
=21
4ccc
4bb-}
=22
{4ccc
8bb-
16ccc
16bb-
=23
4gg
4bb-}
=24
{4ccc
8bb-
16ccc
16bb-
=25
2ccc}
==
!!!AGN: Haozi, Damai haozi
!!!AMT: simple duple
!!!AIN: vox
!!!EED: Helmut Schaffrath
!!!EEV: 1.0
*-
